images/delivery.svg

<svg width="56" height="56" viewBox="0 0 56 56" fill="none" xmlns="http://www.w3.org/2000/svg">
<circle cx="28" cy="28" r="28" fill="#FCB72B"/>
<path d="M25.6665 16.3335C26.5256 16.3335 27.2222 17.0301 27.2222 17.8892V24.1968L28.437 24.5005H31.5005C31.7151 24.5007 31.8892 24.6745 31.8892 24.8892V26.4448C31.889 26.6594 31.715 26.8333 31.5005 26.8335H28.3892C28.3573 26.8335 28.3253 26.8295 28.2944 26.8218L27.2222 26.5542V27.6108H31.5005C31.7151 27.611 31.8892 27.7858 31.8892 28.0005V32.2778C32.5334 32.2779 33.0562 32.8005 33.0562 33.4448V33.8335H34.2222V23.4253L33.5933 22.1665H31.5005C31.2857 22.1665 31.1108 21.9926 31.1108 21.7778V20.2222C31.111 20.0075 31.2858 19.8335 31.5005 19.8335H33.8335C34.0482 19.8335 34.2221 20.0075 34.2222 20.2222V21.686L34.8521 22.9448H38.5005C38.7151 22.945 38.8892 23.1188 38.8892 23.3335V26.4448C38.889 26.6594 38.715 26.8333 38.5005 26.8335H37.4331L39.6567 36.4683C39.6834 36.5838 39.6564 36.7056 39.5825 36.7983C39.5087 36.891 39.3963 36.9449 39.2778 36.9448H38.8892C38.889 38.4482 37.6699 39.6665 36.1665 39.6665C34.6633 39.6663 33.4449 38.4481 33.4448 36.9448H26.4448C26.4447 38.4482 25.2255 39.6665 23.7222 39.6665C22.2189 39.6664 21.0006 38.4481 21.0005 36.9448H16.7222C16.5076 36.9447 16.3337 36.7707 16.3335 36.5562V35.0005C16.3335 34.7858 16.5075 34.611 16.7222 34.6108H18.6665V33.8335H17.5005C17.2858 33.8335 17.111 33.6595 17.1108 33.4448V31.8892C17.1108 31.6744 17.2857 31.5005 17.5005 31.5005H18.6978C18.8909 30.1624 20.0372 29.1681 21.3892 29.1665H22.5562V25.2778H21.7778V26.4448C21.7777 27.0891 21.2551 27.6108 20.6108 27.6108H16.7222C16.5651 27.6107 16.423 27.5167 16.3628 27.3716C16.3026 27.2263 16.3366 27.059 16.4478 26.9478L17.3394 26.0562L16.4478 25.1636C16.3368 25.0525 16.3029 24.8859 16.3628 24.7407C16.4229 24.5955 16.565 24.5006 16.7222 24.5005H19.4448V23.3335C19.4448 22.6893 19.9667 22.1667 20.6108 22.1665H22.5562V17.8892C22.5562 17.0302 23.2519 16.3337 24.1108 16.3335H25.6665ZM21.7778 36.9448C21.7792 38.018 22.649 38.8878 23.7222 38.8892C24.7954 38.8879 25.6651 38.0181 25.6665 36.9448H24.8892C24.889 37.5891 24.3664 38.1108 23.7222 38.1108C23.078 38.1107 22.5563 37.589 22.5562 36.9448H21.7778ZM34.2222 36.9448C34.2236 38.018 35.0934 38.8877 36.1665 38.8892C37.2398 38.8879 38.1094 38.0181 38.1108 36.9448H37.3335C37.3334 37.5891 36.8108 38.1108 36.1665 38.1108C35.5224 38.1107 35.0006 37.5889 35.0005 36.9448H34.2222ZM23.3335 36.9448C23.3336 37.1594 23.5076 37.3334 23.7222 37.3335C23.9369 37.3335 24.1107 37.1595 24.1108 36.9448H23.3335ZM35.7778 36.9448C35.778 37.1594 35.952 37.3333 36.1665 37.3335C36.3812 37.3335 36.556 37.1595 36.5562 36.9448H35.7778ZM17.1108 36.1665H18.6665V35.3892H17.1108V36.1665ZM21.3892 29.9448C20.3158 29.9461 19.4461 30.8158 19.4448 31.8892V36.1665H20.2222V32.2778C20.2222 31.6335 20.7449 31.1108 21.3892 31.1108H26.0562C26.7002 31.1111 27.2221 31.6337 27.2222 32.2778V36.1665H28.0005V31.8892C27.9992 30.816 27.1293 29.9463 26.0562 29.9448H21.3892ZM21.3892 31.8892C21.1744 31.8892 21.0005 32.0631 21.0005 32.2778V36.1665H26.4448V32.2778C26.4448 32.0632 26.2707 31.8894 26.0562 31.8892H21.3892ZM28.7778 36.1665H34.2222V34.6108H28.7778V36.1665ZM35.0005 32.6665H35.7778V33.4448H35.0005V36.1665H38.7876L36.6333 26.8335H35.0005V32.6665ZM27.9575 29.9448C28.4821 30.4557 28.7779 31.1569 28.7778 31.8892V33.8335H29.5562V29.9448H27.9575ZM30.3335 33.8335H32.2778V33.4448C32.2778 33.2301 32.1039 33.0562 31.8892 33.0562H30.3335V33.8335ZM22.5562 33.4448H21.7778V32.6665H22.5562V33.4448ZM24.1108 33.4448H23.3335V32.6665H24.1108V33.4448ZM25.6665 33.4448H24.8892V32.6665H25.6665V33.4448ZM37.3335 33.4448H36.5562V32.6665H37.3335V33.4448ZM17.8892 33.0562H18.6665V32.2778H17.8892V33.0562ZM23.3335 29.1665H29.9448C30.1595 29.1666 30.3335 29.3414 30.3335 29.5562V32.2778H31.1108V28.3892H23.3335V29.1665ZM23.3335 27.6108H26.4448V26.3599L25.1831 26.0444C25.0102 26.001 24.8892 25.8448 24.8892 25.6665V24.1108C24.8893 23.9913 24.9444 23.8788 25.0386 23.8052C25.133 23.7315 25.2564 23.7048 25.3726 23.7339L26.4448 24.0024V23.3335H23.3335V27.6108ZM18.1636 25.7808C18.3154 25.9326 18.3154 26.1787 18.1636 26.3306L17.6616 26.8335H20.6108C20.8255 26.8335 21.0004 26.6595 21.0005 26.4448V25.2778H17.6616L18.1636 25.7808ZM33.0562 24.5005C33.7002 24.5007 34.222 25.0225 34.2222 25.6665C34.2222 26.3107 33.7003 26.8333 33.0562 26.8335C32.4118 26.8335 31.8892 26.3108 31.8892 25.6665C31.8893 25.0223 32.4119 24.5005 33.0562 24.5005ZM25.6665 25.3628L28.437 26.0562H31.1108V25.2778H28.3892C28.3573 25.2778 28.3253 25.2739 28.2944 25.2661L25.6665 24.6099V25.3628ZM33.0562 25.2778C32.8415 25.2778 32.6667 25.4519 32.6665 25.6665C32.6665 25.8813 32.8414 26.0562 33.0562 26.0562C33.2707 26.0559 33.4448 25.8811 33.4448 25.6665C33.4446 25.452 33.2706 25.2781 33.0562 25.2778ZM35.0005 26.0562H36.5562V23.7222H35.0005V26.0562ZM37.3335 26.0562H38.1108V23.7222H37.3335V26.0562ZM20.6108 22.9448C20.3963 22.9451 20.2222 23.1189 20.2222 23.3335V24.5005H22.5562V22.9448H20.6108ZM23.3335 21.6782V22.5562H26.4448V20.7446L23.3335 21.6782ZM21.7778 21.3892H17.1108V20.6108H21.7778V21.3892ZM31.8892 21.3892H33.4448V20.6108H31.8892V21.3892ZM25.2778 19.8335C25.2778 20.0482 25.1039 20.2221 24.8892 20.2222H23.3335V20.8667L26.4448 19.9331V19.0562H25.2778V19.8335ZM21.3892 19.8335H16.3335V19.0562H21.3892V19.8335ZM24.1108 17.1108C23.6815 17.1111 23.3335 17.4597 23.3335 17.8892V19.4448H24.5005V18.6665C24.5007 18.4519 24.6745 18.2778 24.8892 18.2778H26.4448V17.8892C26.4448 17.4596 26.0961 17.1108 25.6665 17.1108H24.1108Z" fill="#495567"/>
</svg>

<svg xmlns="http://www.w3.org/2000/svg" width="56" height="56" fill="none" viewBox="0 0 56 56"><circle cx="28" cy="28" r="28" fill="#fcb72b"/><path fill="#495567" d="M25.667 16.334c.859 0 1.555.696 1.555 1.555v6.308l1.215.303H31.5a.39.39 0 0 1 .39.39v1.555a.39.39 0 0 1-.39.389h-3.11a.4.4 0 0 1-.096-.012l-1.072-.268v1.057H31.5a.39.39 0 0 1 .39.39v4.277c.643 0 1.166.523 1.166 1.167v.389h1.166V23.425l-.629-1.259H31.5a.39.39 0 0 1-.39-.388v-1.556a.39.39 0 0 1 .39-.389h2.334a.39.39 0 0 1 .388.39v1.463l.63 1.259h3.649c.214 0 .388.174.388.389v3.11a.39.39 0 0 1-.389.39h-1.067l2.224 9.634a.39.39 0 0 1-.38.477h-.388a2.722 2.722 0 0 1-5.444 0h-7a2.722 2.722 0 0 1-5.445 0h-4.278a.39.39 0 0 1-.389-.389v-1.555a.39.39 0 0 1 .39-.39h1.944v-.777H17.5a.39.39 0 0 1-.39-.39V31.89a.39.39 0 0 1 .39-.389h1.198a2.72 2.72 0 0 1 2.691-2.334h1.167v-3.888h-.778v1.167c0 .644-.523 1.166-1.167 1.166h-3.889a.389.389 0 0 1-.274-.663l.891-.892-.891-.892a.389.389 0 0 1 .274-.664h2.723v-1.166c0-.645.522-1.167 1.166-1.168h1.945V17.89c0-.859.696-1.555 1.555-1.555zm-3.89 20.61a1.947 1.947 0 0 0 1.945 1.945 1.947 1.947 0 0 0 1.944-1.944h-.777a1.167 1.167 0 0 1-2.333 0zm12.445 0a1.947 1.947 0 0 0 1.944 1.945 1.947 1.947 0 0 0 1.945-1.944h-.777a1.166 1.166 0 0 1-2.334 0zm-10.888 0a.389.389 0 0 0 .777 0zm12.444 0a.39.39 0 0 0 .778 0zm-18.667-.778h1.555v-.777h-1.555zm4.278-6.221a1.947 1.947 0 0 0-1.944 1.944v4.278h.777v-3.89c0-.643.523-1.166 1.167-1.166h4.667c.644 0 1.166.523 1.166 1.167v3.889H28v-4.278a1.947 1.947 0 0 0-1.944-1.944zm0 1.944a.39.39 0 0 0-.389.389v3.889h5.445v-3.89a.39.39 0 0 0-.389-.388zm7.389 4.278h5.444V34.61h-5.444zm6.223-3.5h.777v.778H35v2.721h3.787l-2.155-9.332H35zm-7.043-2.722c.524.51.82 1.212.82 1.944v1.945h.778v-3.89zm2.376 3.889h1.944v-.39a.39.39 0 0 0-.389-.388h-1.555zm-7.778-.39h-.778v-.778h.778zm1.555 0h-.777v-.778h.777zm1.555 0h-.777v-.778h.777zm11.668 0h-.778v-.778h.778zm-19.445-.388h.777v-.778h-.777zm5.445-3.89h6.61a.39.39 0 0 1 .39.39v2.722h.777v-3.889h-7.777zm0-1.555h3.11V26.36l-1.26-.316a.39.39 0 0 1-.295-.378v-1.555a.388.388 0 0 1 .484-.377l1.072.268v-.668h-3.111zm-5.17-1.83a.39.39 0 0 1 0 .55l-.502.503h2.949a.39.39 0 0 0 .39-.39v-1.166h-3.34zm14.892-1.28a1.166 1.166 0 1 1 0 2.332 1.166 1.166 0 0 1 0-2.332m-7.39.862 2.771.693h2.674v-.778h-2.722a.4.4 0 0 1-.095-.012l-2.628-.656zm7.39-.085a.39.39 0 1 0 0 .78.39.39 0 0 0 0-.78m1.945.778h1.555v-2.334h-1.555zm2.333 0h.777v-2.334h-.777zM20.61 22.945a.39.39 0 0 0-.389.389V24.5h2.334v-1.555zm2.723-1.267v.878h3.11v-1.811zm-1.556-.289H17.11v-.778h4.667zm10.111 0h1.556v-.778h-1.556zm-6.611-1.555a.39.39 0 0 1-.389.388h-1.555v.645l3.11-.934v-.877h-1.166zm-3.889 0h-5.055v-.778h5.055zm2.722-2.723a.78.78 0 0 0-.777.778v1.556H24.5v-.779c0-.214.174-.388.39-.388h1.555v-.389a.78.78 0 0 0-.779-.778z"/></svg>
